images/애니문구2-1.svg

<svg width="163" height="37" viewBox="0 0 163 37" fill="none" xmlns="http://www.w3.org/2000/svg">
<path d="M45.59 14.9296C45.53 13.6296 45.24 13.2596 44.34 13.1696L44.42 12.8596C45.05 12.8796 45.66 12.8996 46.33 12.8996C47.13 12.8996 47.7 12.8896 48.33 12.8596L48.26 13.1696C47.53 13.2196 47.28 13.7096 47.27 14.3896C47.21 16.0096 47.27 17.9596 47.29 19.0896C47.53 18.7396 49.77 15.6596 50.05 15.2596C50.01 14.1096 49.93 13.2596 49.02 13.1596L49.08 12.8496C49.67 12.8696 50.07 12.8896 50.75 12.8896C51.55 12.8896 52.17 12.8796 52.83 12.8496L52.76 13.1596C51.96 13.2196 51.71 13.5796 51.69 14.3396C51.69 15.8596 51.74 18.0096 51.79 19.1296C52.72 17.9396 53.89 16.3196 54.94 14.8096C55.72 13.7096 55.4 13.2096 54.26 13.1696L54.34 12.8596C55.01 12.8796 55.56 12.8996 56.25 12.8996C57.05 12.8996 57.62 12.8896 58.12 12.8596L58.05 13.1696C57.44 13.2796 56.85 13.5796 55.94 14.6696C54.13 16.8996 52.25 19.4196 50.9 21.1896L50.16 21.3496C50.17 20.0396 50.11 17.4296 50.09 16.1096C49.76 16.5696 46.7 20.7396 46.37 21.1896L45.67 21.3496C45.67 19.6496 45.66 17.2496 45.57 14.9296H45.59Z" fill="white"/>
<path d="M56.23 20.8804C57.37 20.8304 57.7 20.3304 58.04 19.1604C58.48 17.6404 58.83 16.4104 59.26 14.8804C59.61 13.6804 59.56 13.2404 58.42 13.1804L58.52 12.8604C59.27 12.8804 59.88 12.9004 60.62 12.9004C61.36 12.9004 62.03 12.8904 62.73 12.8604L62.63 13.1804C61.67 13.2404 61.36 13.6704 60.99 14.8804C60.54 16.3904 60.15 17.7604 59.75 19.1704C59.37 20.5304 59.57 20.8304 60.57 20.8704L60.47 21.1904C59.76 21.1804 59.06 21.1504 58.29 21.1504C57.56 21.1504 56.96 21.1504 56.12 21.1904L56.22 20.8704L56.23 20.8804Z" fill="white"/>
<path d="M62.82 20.8797C64.13 20.8097 64.42 20.3197 64.75 19.1597C65.16 17.7297 65.48 16.6797 65.89 15.1997C66.14 14.2797 66.4 13.3997 66.4 13.3997C64.67 13.3997 63.93 13.6897 63.12 15.3097L62.74 15.2297L63.16 13.9297C63.31 13.4997 63.58 12.8997 63.8 12.7197C63.99 12.8497 64.43 12.9097 64.66 12.9097H70.14C70.39 12.9097 70.81 12.8397 71.1 12.7197C71.2 12.9697 71.17 13.5097 71.08 13.9197L70.78 15.2497L70.37 15.2997C70.48 13.7197 69.93 13.3997 68.15 13.3997C68.15 13.3997 67.86 14.3997 67.62 15.1997C67.2 16.6797 66.89 17.7397 66.49 19.1697C66.14 20.4097 66.24 20.8297 67.45 20.8697L67.37 21.1897C66.23 21.1497 65.84 21.1497 65.01 21.1497C64.23 21.1497 63.82 21.1497 62.73 21.1897L62.84 20.8697L62.82 20.8797Z" fill="white"/>
<path d="M69.47 20.8804C70.61 20.8304 70.94 20.3304 71.26 19.1604C71.71 17.6404 72.06 16.4104 72.5 14.8804C72.85 13.6804 72.8 13.2404 71.68 13.1804L71.78 12.8604C72.52 12.8804 73.12 12.9004 73.86 12.9004C74.6 12.9004 75.27 12.8904 75.97 12.8604L75.87 13.1804C74.91 13.2404 74.59 13.6704 74.23 14.8804C74.1 15.3204 73.82 16.3404 73.75 16.6104H77.31C77.38 16.3304 77.69 15.2804 77.83 14.8004C78.15 13.7004 78.12 13.2004 77.07 13.1804L77.17 12.8604C77.8 12.8804 78.47 12.9004 79.21 12.9004C79.95 12.9004 80.59 12.8904 81.44 12.8604L81.34 13.1804C80.25 13.2004 79.9 13.6704 79.57 14.8004C79.16 16.2204 78.72 17.7104 78.31 19.1704C78 20.3104 78.03 20.8404 79.22 20.8904L79.12 21.2104C78.08 21.1904 77.7 21.1704 76.96 21.1704C76.17 21.1704 75.54 21.1804 74.8 21.2104L74.9 20.8904C75.91 20.8504 76.23 20.3704 76.58 19.1704C76.73 18.6304 77.08 17.4604 77.16 17.1404H73.59C73.51 17.4504 73.17 18.6204 73.01 19.1804C72.66 20.3704 72.72 20.8404 73.74 20.8804L73.64 21.2004C72.93 21.1904 72.33 21.1604 71.56 21.1604C70.79 21.1604 70.21 21.1604 69.38 21.2004L69.48 20.8804H69.47Z" fill="white"/>
<path d="M85.03 20.8804C86.18 20.8304 86.5 20.3304 86.84 19.1604C87.29 17.6404 87.63 16.4004 88.06 14.8804C88.42 13.6404 88.34 13.2404 87.24 13.1804L87.34 12.8604C88.09 12.8804 88.71 12.9004 89.47 12.9004C90.23 12.9004 90.91 12.8904 91.57 12.8604L91.47 13.1804C90.49 13.2404 90.16 13.6204 89.8 14.8904C89.39 16.2804 88.99 17.7004 88.55 19.2204C88.21 20.4004 88.34 20.6404 89.54 20.6404C90.81 20.6404 91.85 20.1604 92.75 18.4804L93.1 18.5804L92.68 19.8604C92.45 20.5704 92.23 20.9904 91.92 21.2004C90.62 21.1604 89.7 21.1504 88.5 21.1504C87.06 21.1504 86 21.1704 84.94 21.2004L85.04 20.8804H85.03Z" fill="white"/>
<path d="M93.68 17.7197C93.79 14.8897 96.18 12.6797 98.8 12.6797C100.97 12.6797 102.3 14.1697 102.19 16.3597C102.08 19.0597 99.85 21.3797 97.05 21.3797C94.85 21.3797 93.56 19.8797 93.67 17.7097L93.68 17.7197ZM100.31 15.7097C100.41 14.1897 99.92 13.1597 98.81 13.1597C96.96 13.1597 95.64 16.1597 95.53 18.4197C95.45 19.9297 95.95 20.8997 97.04 20.8997C99.06 20.8997 100.21 17.6397 100.31 15.7097Z" fill="white"/>
<path d="M104.33 14.9204C104.27 13.5704 103.95 13.2804 103.07 13.1804L103.15 12.8604C103.95 12.8804 104.57 12.9004 105.23 12.9004C105.99 12.9004 106.71 12.8904 107.47 12.8604L107.39 13.1804C106.2 13.2204 106.03 13.7204 106.01 14.5604C105.99 16.1004 106.03 18.0104 106.08 19.1704C107.05 17.9804 108.36 16.3204 109.44 14.8404C110.24 13.7404 109.9 13.2204 108.76 13.1904L108.86 12.8704C109.51 12.8904 110.06 12.9104 110.74 12.9104C111.53 12.9104 112.11 12.9004 112.62 12.8704L112.55 13.1904C111.94 13.2904 111.4 13.6004 110.47 14.6904C108.6 16.8804 106.58 19.4804 105.22 21.2004L104.47 21.3604C104.47 19.6904 104.42 17.3404 104.34 14.9304L104.33 14.9204Z" fill="white"/>
<path d="M110.58 20.8804C111.76 20.8104 112.06 20.2904 112.39 19.1804C112.84 17.6704 113.18 16.4304 113.63 14.8704C113.99 13.5904 113.86 13.2604 112.79 13.1804L112.89 12.8604C113.82 12.9004 115.02 12.9004 116.21 12.9004C117.28 12.9004 118 12.9004 119.15 12.8604C119.32 13.1104 119.26 13.5704 119.1 14.0504L118.75 15.0604H118.41C118.46 13.7804 118.28 13.3704 115.83 13.3704C115.76 13.5504 115.6 14.0704 115.47 14.5204C115.28 15.1404 114.94 16.3204 114.84 16.6504C116.79 16.6504 117.12 16.6304 117.67 15.6704H118C117.95 15.8304 117.29 18.1404 117.25 18.3004H116.89C116.99 17.3204 116.7 17.1404 114.71 17.1404C114.6 17.4904 114.23 18.8304 114.07 19.3504C113.78 20.3704 113.91 20.6604 115.03 20.6604C116.63 20.6604 117.43 19.9604 118.23 18.6404L118.58 18.7104L118.17 20.0904C117.98 20.7404 117.76 21.0504 117.49 21.2204C116.29 21.2004 115.35 21.1804 114.24 21.1804C112.9 21.1804 111.95 21.1804 110.5 21.2204L110.6 20.9004L110.58 20.8804Z" fill="white"/>
<path d="M118.41 22.9996C118.93 22.6196 119.61 22.0196 119.61 21.2596C119.61 20.9096 119.4 20.7296 119.11 20.6196L119.58 19.7696L119.8 19.6396C120.56 19.6396 120.88 20.1196 120.88 20.6096C120.88 21.9096 119.47 22.7296 118.58 23.2696L118.41 22.9896V22.9996Z" fill="white"/>
</svg>

<?xml version="1.0" encoding="UTF-8"?>
<svg id="_레이어_1" data-name="레이어_1" xmlns="http://www.w3.org/2000/svg" version="1.1" viewBox="0 0 162.55 36.09">
  <!-- Generator: Adobe Illustrator 30.0.0, SVG Export Plug-In . SVG Version: 2.1.1 Build 123)  -->
  <defs>
    <style>
      .st0 {
        fill: #fff;
      }
    </style>
  </defs>
  <path class="st0" d="M45.59,14.93c-.06-1.3-.35-1.67-1.25-1.76l.08-.31c.63.02,1.24.04,1.91.04.8,0,1.37-.01,2-.04l-.07.31c-.73.05-.98.54-.99,1.22-.06,1.62,0,3.57.02,4.7.24-.35,2.48-3.43,2.76-3.83-.04-1.15-.12-2-1.03-2.1l.06-.31c.59.02.99.04,1.67.04.8,0,1.42-.01,2.08-.04l-.07.31c-.8.06-1.05.42-1.07,1.18,0,1.52.05,3.67.1,4.79.93-1.19,2.1-2.81,3.15-4.32.78-1.1.46-1.6-.68-1.64l.08-.31c.67.02,1.22.04,1.91.04.8,0,1.37-.01,1.87-.04l-.07.31c-.61.11-1.2.41-2.11,1.5-1.81,2.23-3.69,4.75-5.04,6.52l-.74.16c.01-1.31-.05-3.92-.07-5.24-.33.46-3.39,4.63-3.72,5.08l-.7.16c0-1.7-.01-4.1-.1-6.42Z"/>
  <path class="st0" d="M56.23,20.88c1.14-.05,1.47-.55,1.81-1.72.44-1.52.79-2.75,1.22-4.28.35-1.2.3-1.64-.84-1.7l.1-.32c.75.02,1.36.04,2.1.04s1.41-.01,2.11-.04l-.1.32c-.96.06-1.27.49-1.64,1.7-.45,1.51-.84,2.88-1.24,4.29-.38,1.36-.18,1.66.82,1.7l-.1.32c-.71-.01-1.41-.04-2.18-.04-.73,0-1.33,0-2.17.04l.1-.32Z"/>
  <path class="st0" d="M62.82,20.88c1.31-.07,1.6-.56,1.93-1.72.41-1.43.73-2.48,1.14-3.96.25-.92.51-1.8.51-1.8-1.73,0-2.47.29-3.28,1.91l-.38-.08.42-1.3c.15-.43.42-1.03.64-1.21.19.13.63.19.86.19h5.48c.25,0,.67-.07.96-.19.1.25.07.79-.02,1.2l-.3,1.33-.41.05c.11-1.58-.44-1.9-2.22-1.9,0,0-.29,1-.53,1.8-.42,1.48-.73,2.54-1.13,3.97-.35,1.24-.25,1.66.96,1.7l-.08.32c-1.14-.04-1.53-.04-2.36-.04-.78,0-1.19,0-2.28.04l.11-.32Z"/>
  <path class="st0" d="M69.47,20.88c1.14-.05,1.47-.55,1.79-1.72.45-1.52.8-2.75,1.24-4.28.35-1.2.3-1.64-.82-1.7l.1-.32c.74.02,1.34.04,2.08.04s1.41-.01,2.11-.04l-.1.32c-.96.06-1.28.49-1.64,1.7-.13.44-.41,1.46-.48,1.73h3.56c.07-.28.38-1.33.52-1.81.32-1.1.29-1.6-.76-1.62l.1-.32c.63.02,1.3.04,2.04.04s1.38-.01,2.23-.04l-.1.32c-1.09.02-1.44.49-1.77,1.62-.41,1.42-.85,2.91-1.26,4.37-.31,1.14-.28,1.67.91,1.72l-.1.32c-1.04-.02-1.42-.04-2.16-.04-.79,0-1.42.01-2.16.04l.1-.32c1.01-.04,1.33-.52,1.68-1.72.15-.54.5-1.71.58-2.03h-3.57c-.08.31-.42,1.48-.58,2.04-.35,1.19-.29,1.66.73,1.7l-.1.32c-.71-.01-1.31-.04-2.08-.04s-1.35,0-2.18.04l.1-.32Z"/>
  <path class="st0" d="M82.03,20.88c1.15-.05,1.47-.55,1.81-1.72.45-1.52.79-2.76,1.22-4.28.36-1.24.28-1.64-.82-1.7l.1-.32c.75.02,1.37.04,2.13.04s1.44-.01,2.1-.04l-.1.32c-.98.06-1.31.44-1.67,1.71-.41,1.39-.81,2.81-1.25,4.33-.34,1.18-.21,1.42.99,1.42,1.27,0,2.31-.48,3.21-2.16l.35.1-.42,1.28c-.23.71-.45,1.13-.76,1.34-1.3-.04-2.22-.05-3.42-.05-1.44,0-2.5.02-3.56.05l.1-.32Z"/>
  <path class="st0" d="M90.68,17.72c.11-2.83,2.5-5.04,5.12-5.04,2.17,0,3.5,1.49,3.39,3.68-.11,2.7-2.34,5.02-5.14,5.02-2.2,0-3.49-1.5-3.38-3.67ZM97.31,15.71c.1-1.52-.39-2.55-1.5-2.55-1.85,0-3.17,3-3.28,5.26-.08,1.51.42,2.48,1.51,2.48,2.02,0,3.17-3.26,3.27-5.19Z"/>
  <path class="st0" d="M101.33,14.92c-.06-1.35-.38-1.64-1.26-1.74l.08-.32c.8.02,1.42.04,2.08.04.76,0,1.48-.01,2.24-.04l-.08.32c-1.19.04-1.36.54-1.38,1.38-.02,1.54.02,3.45.07,4.61.97-1.19,2.28-2.85,3.36-4.33.8-1.1.46-1.62-.68-1.65l.1-.32c.65.02,1.2.04,1.88.04.79,0,1.37-.01,1.88-.04l-.07.32c-.61.1-1.15.41-2.08,1.5-1.87,2.19-3.89,4.79-5.25,6.51l-.75.16c0-1.67-.05-4.02-.13-6.43Z"/>
  <path class="st0" d="M107.58,20.88c1.18-.07,1.48-.59,1.81-1.7.45-1.51.79-2.75,1.24-4.31.36-1.28.23-1.61-.84-1.69l.1-.32c.93.04,2.13.04,3.32.04,1.07,0,1.79,0,2.94-.04.17.25.11.71-.05,1.19l-.35,1.01h-.34c.05-1.28-.13-1.69-2.58-1.69-.07.18-.23.7-.36,1.15-.19.62-.53,1.8-.63,2.13,1.95,0,2.28-.02,2.83-.98h.33c-.05.16-.71,2.47-.75,2.63h-.36c.1-.98-.19-1.16-2.18-1.16-.11.35-.48,1.69-.64,2.21-.29,1.02-.16,1.31.96,1.31,1.6,0,2.4-.7,3.2-2.02l.35.07-.41,1.38c-.19.65-.41.96-.68,1.13-1.2-.02-2.14-.04-3.25-.04-1.34,0-2.29,0-3.74.04l.1-.32Z"/>
  <path class="st0" d="M115.41,23c.52-.38,1.2-.98,1.2-1.74,0-.35-.21-.53-.5-.64l.47-.85.22-.13c.76,0,1.08.48,1.08.97,0,1.3-1.41,2.12-2.3,2.66l-.17-.28Z"/>
</svg>
